X: 2 % start of header
T:Torus:Taurus Tune
T:13 of 100,000,000,000,000
C: (Sid.)
O: Jeff Minter
R:Procedurally Generated
L: 1/8
K: D % scale: C major
V:1 name="Voice 1"
G,16    |     |     |     | F,16    |     |     |     | C,16    |     |     |     | F,16    |     |     |     | :|
V:2 name="Voice 2"
D4    | C4    | G,4    | C4    | C4    | ^A,4    | F,4    | ^A,4    | G,4    | F,4    | C,4    | F,4    | C4    | ^A,4    | F,4    | ^A,4    | :|
V:3 name="Voice 3"
A1G1D1G1|G1F1C1F1|D1C1G,1C1|G1F1C1F1|G1F1C1F1|F1^D1^A,1^D1|C1^A,1F,1^A,1|F1^D1^A,1^D1|D1C1G,1C1|C1^A,1F,1^A,1|G,1F,1C,1F,1|C1^A,1F,1^A,1|G1F1C1F1|F1^D1^A,1^D1|C1^A,1F,1^A,1|F1^D1^A,1^D1|:|
